X:1
T:Title
%%score 1 2 3
L:1/8
M:3/2
K:C
V:1 treble nm="Part_1"
V:2 treble-8 nm="Part_2"
V:3 treble-8 nm="Part_3"
V:1
 c8 c4 | d4 c4 A4 | _B4 c6 B2 | A4 G6 F2 | F4 z4 C4 | D4 C4 F3 G | A4 _B6 A2 | A8 G4 | A4 _B8 | %9
 c4 d6 c2 | c8 _B4 | A4 G8 | F8 E4 | F8 A2 B2 | c4 d6 c2 | c8 B4 | c4 z4 c2 c2 | %17
 d2 d2 B2 G2 A2 A2 | G4 c2 c2 c2 c2 | B4 G2 A3 G F2 | E4 G2 G2 G2 G2 | C2 z2 E2 E2 G2 G2 | %22
 A4 G2 c4 B2 | A4 A2 G2 c2 B2 | c4 z4 A4 | A2 A2 A2 G2 c4 | c2 A2 _B2 B2 G2 c2- | c2 _B2 A4 G2 F2 | %28
 A2 G2 D2 G4 E2 | C4 D2 F2 E2 D2 | F12 | z12 | z12 | z12 | z12 | z12 | z12 | z12 | z12 | z4 z4 A4 | %40
 _B4 B2 B2 B2 B2 | A4 F2 G4 G2 | A4 F4 _B4 | A4 F4 G4 | D4 z4 C4 | D4 E6 F2 | G6 E2 F4 | E8 z4 | %48
 A4 A2 A2 A2 A2 | A4 A2 A2 A2 A2 | A4 G2 z2 A2 _B2 | c4 _B2 _A3 G F2 | _E4 G4 _A2 G2 | %53
 c6 B2 B2 A2 | c12 |[M:6/4] d6 c4 B2 | A4 G4 c2 c2 | B4 G2 A4 F2 | E2 G4 G4 G2 | C2 F4 G2 A2 G2 | %60
 E2 F4 E4 z2 | G4 G2 A2 G2 c2- | c2 d2 c2 G2 A2 B2 | c4 B2 c6 | z2 z2 c2 d4 d2- | d2 d4 B2 G2 A2- | %66
 A2 G2 c2 B2 G2 A2 | B4 G2 c4 B2- | B2 A4 G4 E2 | F6 E6- | E6 z6 | z12 | z12 | z12 | z6 A4 A2- | %75
 A2 A4 G4 A2 | B4 B2 B2 c4 | B4 G4 c4 | B2 A4 G4 F2 | E4 z2 G2 G2 G2 | G4 G2 A2 z2 c2- | %81
 c2 d4 _B4 G2 | c4 _B4 A4 | G4 F2 G6 | z6 A4 B2 | c2 c2 c2 d4 B2 | G2 A2 A2 G2 c4 | d6 c2 _B4 | %88
 A4 G2 A6 | z2 E2 F2 G4 G2 | A2 A2 A2 G2 E2 F2- | F2 E4 D2 z2 A2- | A2 A2 A2 G2 G2 c2 | %93
 c2 B2 d4 c2 B2 | G2 A2 G2 c2 B2 A2 | c6 z2 z2 A2 | B2 B2 G2 B2 A4 | E2 z2 G2 G2 G2 G2 | %98
 C2 z2 F3 G A2 G2 | E2 F2 E2 C4 D2 |[M:3/4] F2 E2 D2 |[M:3/2] F12 || A8 A3 _B | c4 A2 F2 G4 | %104
 F4 z2 F2 F2 G2 | A2 _B2 c2 d2 c2 B2 | A2 _B4 A4 G2 | A4 z4 E4 | E2 E2 D4 A4 | G2 A2 c4 B2 A2 | %110
 c4 z4 G4 | A2 A2 A2 A2 E4 | G2 G2 G4 C4 | D2 E4 F2 G2 A2- | A2 G2 c2 c2 c2 c2 | d4 B2 G2 A4 | %116
 A2 G2 A2 c2 B2 A2 | c4 z4 A3 _B | c4 _B4 G4- | G4 A6 G2 | E4 G6 E2 | C4 E4 D4 | C4 z4 B,4 | %123
 C4 D6 C2 | C4 z4 A3 _B | c4 A6 G2 | F4 E4 C4 | z2 F2 E2 F2 G2 E2 | F12 |] %129
V:2
[K:F] F12 | f8 f4 | z4 e8 | e8 e4 | z4 f8- | f8 f4 | e4 z4 z4 | f8 d4 | c4 d4 G4 | z4 F8 | %10
 c4 z4 G4 | A8 d4 | c4 B6 A2 | c12- | c8 B4 | B4 G8 | g12- | g4 d8- | d4 c8 | d4 c4 F4 | A4 z4 z4 | %21
 e2 e2 g2 g2 e4 | f8 e4- | e12 | f12 | F12 | c4 d4 e4- | e4 f4 c4- | c4 B4 G4 | A6 c2 B2 A2 | %30
 c4 z4 z4 | f4 f2 f2 f4 | e4 c4 e2 f2 | g4 a4 g2 e2 | f4 e8 | d4 z4 ^f4 | g4 a6 g2 | e4 d2 g4 f2 | %38
 f6 d2 e4 | f8 f4 | g4 g2 g2 g2 g2 | d4 z4 e4 | f2 f2 a4 g4 | f2 g2 a4 b4 | a4 z2 f2 g2 e2 | %45
 d4 g6 f2 | e4 d6 c2 | c12 | F12- | F8 F4 | F4 c4 f4 | _e4 _d8 | B8 c4 | _A4 G8 | g8 z4 | %55
[M:6/4] d4 d2 A4 G2 | c4 c2 c4 c2 | G6 F4 A2- | A2 G2 c4 c4 | c2 d4 e2 f2 g2- | g2 a4 g4 e2- | %61
 e2 c4 c6 | f6 e4 c2- | c2 d4 e6- | e6 z6 | z12 | z12 | z12 | z12 | z12 | g4 g2 a4 a2 | %71
 a2 a4 g4 e2 | c2 f4 e4 f2 | g2 a3 f f4 e2 | f6 c6 | F6 c6 | G4 d2 f2 e2 c2 | d6 e6 | f4 d2 G6 | %79
 A6 e6- | e6 f6- | f6 d4 B2 | z2 A4 G4 A2 | d2 c2 B2 d6- | d6 f6 | e4 f2 g4 g2 | z2 c4 e4 c2- | %87
 c2 F2 G2 A4 G2 | z2 d4 e6 | z6 e6 | c4 d2 e4 d2- | d2 A4 B4 z2 | F6 c4 c2 | z2 G4 g2 f2 g2 | %94
 e4 c4 G4 | g4 e2 c2 e4 | d4 e2 g2 f4 | g4 e4 c2 z2 | e4 c4 A2 B2 | c4 g4 e2 d2 |[M:3/4] c4 B2 | %101
[M:3/2] c12 || F12- | F8 c4 | d2 B8 d2 | c3 d e8 | f4 e2 e4 d2 | e4 a4 g4- | g4 a4 d2 f2 | c8 G4 | %110
 g8 e4 | f8 g4 | e12 | g4 c4 G2 F2 | f3 e e6 f2 | g4 f2 e2 d4 | A4 c4 G4 | g6 e2 f4- | f4 d8 | %119
 e4 A4 c4- | c4 d4 e4 | g4 z4 z4 | g4 e4 z2 d2 | A2 c2 B4 F4 | A4 B4 z4 | c12 | F4 A4 z2 c2 | %127
 c6 B2 B2 A2 | c12 |] %129
V:3
[K:F] c12 | F8 F4 | G4 A8 | c12 | F12- | F8 F4 | c8 d4- | d4 B8 | A4 G4 d4 | e4 f8 | e4 d8 | %11
 c8 B4 | A4 G8 | F12- | F8 f4 | e4 d8 | c12 | G8 F4 | G4 A8 | G4 z4 c4 | c12 | c4 c8 | F8 A4- | %23
 A4 c8 | F12 | c8 c4 | A4 G4 c4- | c4 F8 | F4 G4 E4 | F4 A4 G4 | F12- | F12 | c12- | c8 c4 | %34
 d4 c8 | B8 A4 | G4 F4 c4- | c4 B4 G4 | A4 G8 | F12 | z12 | z12 | z12 | z12 | z12 | z12 | z12 | %47
 z12 | c12- | c12 | f4 _e4 d4 | c4 z4 f4 | g4 _e4 c4- | c4 d8 | c12 |[M:6/4] z12 | z12 | z12 | %58
 z12 | z12 | z12 | z12 | z12 | z6 c6- | c6 G6- | G6 g4 f2 | d2 e4 d2 e4 | d4 G2 c4 e2- | %68
 e2 d4 c4 G2 | A4 B2 c6- | c6 f6- | f6 e6- | e2 d4 A2 B4 | G2 F2 A4 G4 | F12 | f6 e6 | d8 A4 | %77
 G6 c6 | d8 d4 | c6 c6- | c2 c4 F6- | F6 G6- | G2 c4 d4 c2 | B2 A4 G6- | G6 F6 | A6 G6- | %86
 G2 F4 c6 | A4 B2 c4 d2- | d2 B4 A6- | A4 F2 E6 | F6 c4 d2- | d2 c4 d6 | f6 e4 e2 | %93
 c2 d4 G2 A2 G2 | c4 e4 d4 | c12 | G6 d6 | c12 | A6 F4 G2 | A4 G2 c4 F2- |[M:3/4] F2 G4 | %101
[M:3/2] F12 || f12- | f8 e4 | d8 B4 | A8 c4 | d4 c4 B4 | A8 c4- | c4 f6 d2 | e2 f4 e2 d4 | c12 | %111
 F8 c4- | c4 c4 A4 | G4 A4 B2 A2 | F2 G2 A8 | G4 d2 e2 f4- | f2 e4 c2 d4 | c8 F4- | F4 G8 | %119
 c8 A4- | A4 G4 c4- | c4 c4 B3 A | c8 d4 | e4 f6 e2 | e4 d8 | A8 F4 | z4 c4 A4 | F4 G8 | F12 |] %129

